X:5738
T:Sailor's Hornpipe
O:england
M:2/4
L:1/16
S:Devil's Box Vol17 #1 Spring 83
K:G
BA|"G"G2G,2 G,2DC|B,DG GBAG|"A7"A2A,2 A,2AG|"D7"FAd2 d2ef|
"G"gfed edcB|"C"cBAG "A7"AGFE|"G"DGFA "D7"GBAc|"G"B2G2 G2:|
|:DC|"G"B,DGD B,DGD|"C"E2C2 C2ED|"A7"^CEAE CEAE|"D7"F2D2 D2cB|
"C"c2e2 edcB|"C"cBAG "A7"AGFE|"G"DGFA "D7"GBAc|"G"B2G2 G2:|


